Newaita-dark/apps/32/inkscape.svg

<?xml version="1.0" encoding="UTF-8"?>
<svg xmlns="http://www.w3.org/2000/svg" xmlns:xlink="http://www.w3.org/1999/xlink" width="32pt" height="32pt" viewBox="0 0 32 32" version="1.1">
<defs>
<linearGradient id="linear0" gradientUnits="userSpaceOnUse" x1="254" y1="233.5" x2="254" y2="254.666672" gradientTransform="matrix(0.062506,0,0,0.062506,-0.00000381506,13.438785)">
<stop offset="0" style="stop-color:rgb(0%,0%,0%);stop-opacity:0.27451;"/>
<stop offset="1" style="stop-color:rgb(0%,0%,0%);stop-opacity:0;"/>
</linearGradient>
<radialGradient id="radial0" gradientUnits="userSpaceOnUse" cx="450.908936" cy="189.579361" fx="450.908936" fy="189.579361" r="21.166656" gradientTransform="matrix(0.00000017417,-0.0781325,-0.140638,-0.000000101539,43.200107,63.595333)">
<stop offset="0" style="stop-color:rgb(0%,0%,0%);stop-opacity:0.313725;"/>
<stop offset="0.222222" style="stop-color:rgb(0%,0%,0%);stop-opacity:0.27451;"/>
<stop offset="1" style="stop-color:rgb(0%,0%,0%);stop-opacity:0;"/>
</radialGradient>
<radialGradient id="radial1" gradientUnits="userSpaceOnUse" cx="450.908936" cy="189.579361" fx="450.908936" fy="189.579361" r="21.166656" gradientTransform="matrix(-0.00000017417,0.0781325,0.140638,0.000000101539,-11.447073,-7.527479)">
<stop offset="0" style="stop-color:rgb(0%,0%,0%);stop-opacity:0.313725;"/>
<stop offset="0.222222" style="stop-color:rgb(0%,0%,0%);stop-opacity:0.27451;"/>
<stop offset="1" style="stop-color:rgb(0%,0%,0%);stop-opacity:0;"/>
</radialGradient>
<radialGradient id="radial2" gradientUnits="userSpaceOnUse" cx="450.908936" cy="189.579361" fx="450.908936" fy="189.579361" r="21.166656" gradientTransform="matrix(-0.00000017417,-0.0781325,0.140638,-0.000000101539,-11.447073,63.595333)">
<stop offset="0" style="stop-color:rgb(0%,0%,0%);stop-opacity:0.313725;"/>
<stop offset="0.222222" style="stop-color:rgb(0%,0%,0%);stop-opacity:0.27451;"/>
<stop offset="1" style="stop-color:rgb(0%,0%,0%);stop-opacity:0;"/>
</radialGradient>
<radialGradient id="radial3" gradientUnits="userSpaceOnUse" cx="450.908936" cy="189.579361" fx="450.908936" fy="189.579361" r="21.166656" gradientTransform="matrix(0.00000017417,0.0781325,-0.140638,0.000000101539,43.200105,-7.527479)">
<stop offset="0" style="stop-color:rgb(0%,0%,0%);stop-opacity:0.313725;"/>
<stop offset="0.222222" style="stop-color:rgb(0%,0%,0%);stop-opacity:0.27451;"/>
<stop offset="1" style="stop-color:rgb(0%,0%,0%);stop-opacity:0;"/>
</radialGradient>
<linearGradient id="linear1" gradientUnits="userSpaceOnUse" x1="960" y1="1695.118164" x2="960" y2="175.118134" >
<stop offset="0" style="stop-color:rgb(25.882353%,25.882353%,25.882353%);stop-opacity:1;"/>
<stop offset="1" style="stop-color:rgb(38.039216%,38.039216%,38.039216%);stop-opacity:1;"/>
</linearGradient>
<linearGradient id="linear2" gradientUnits="userSpaceOnUse" x1="960" y1="1695.118164" x2="960" y2="175.118134" >
<stop offset="0" style="stop-color:rgb(25.882353%,25.882353%,25.882353%);stop-opacity:1;"/>
<stop offset="1" style="stop-color:rgb(38.039216%,38.039216%,38.039216%);stop-opacity:1;"/>
</linearGradient>
<linearGradient id="linear3" gradientUnits="userSpaceOnUse" x1="960" y1="615.118103" x2="960" y2="175.118134" >
<stop offset="0" style="stop-color:rgb(87.843137%,87.843137%,87.843137%);stop-opacity:1;"/>
<stop offset="1" style="stop-color:rgb(93.333333%,93.333333%,93.333333%);stop-opacity:1;"/>
</linearGradient>
</defs>
<g id="surface1">
<path style=" stroke:none;fill-rule:nonzero;fill:url(#linear0);" d="M 14.882812 28.035156 L 16.867188 28.035156 L 16.867188 29.355469 L 14.882812 29.355469 Z M 14.882812 28.035156 "/>
<path style=" stroke:none;fill-rule:nonzero;fill:url(#radial0);" d="M 16.867188 28.035156 L 19.515625 28.035156 L 19.515625 26.710938 L 16.867188 26.710938 Z M 16.867188 28.035156 "/>
<path style=" stroke:none;fill-rule:nonzero;fill:url(#radial1);" d="M 14.882812 28.035156 L 12.238281 28.035156 L 12.238281 29.355469 L 14.882812 29.355469 Z M 14.882812 28.035156 "/>
<path style=" stroke:none;fill-rule:nonzero;fill:url(#radial2);" d="M 14.882812 28.035156 L 12.238281 28.035156 L 12.238281 26.710938 L 14.882812 26.710938 Z M 14.882812 28.035156 "/>
<path style=" stroke:none;fill-rule:nonzero;fill:url(#radial3);" d="M 16.867188 28.035156 L 19.515625 28.035156 L 19.515625 29.355469 L 16.867188 29.355469 Z M 16.867188 28.035156 "/>
<path style="fill-rule:evenodd;fill:url(#linear1);stroke-width:1;stroke-linecap:butt;stroke-linejoin:miter;stroke:url(#linear2);stroke-miterlimit:4;" d="M 959.908384 170.062509 C 932.509424 170.062509 905.110464 185.179176 880.073484 215.176313 L 200.059646 1015.178699 C 170.062509 1055.096149 189.903135 1085.093286 200.059646 1095.013599 C 479.954192 1295.073245 599.94274 1295.073245 820.07921 1615.121439 C 919.990934 1735.109987 1000.062032 1735.109987 1079.896932 1615.121439 C 1320.110226 1295.073245 1440.098774 1295.073245 1719.99332 1095.013599 C 1729.913633 1085.093286 1749.990457 1055.096149 1719.99332 1015.178699 L 1039.979482 215.176313 C 1014.942501 185.179176 987.543541 170.062509 959.908384 170.062509 Z M 959.908384 170.062509 " transform="matrix(0.016538,0,0,0.016538,0,0)"/>
<path style="fill-rule:evenodd;fill:url(#linear3);stroke-width:11.338583;stroke-linecap:butt;stroke-linejoin:miter;stroke:rgb(12.941177%,12.941177%,12.941177%);stroke-opacity:1;stroke-miterlimit:4;" d="M 959.908384 170.062509 C 932.509424 170.062509 905.110464 185.179176 880.073484 215.176313 L 505.935964 655.213055 C 599.94274 895.190151 700.090662 895.190151 793.388844 810.158897 C 940.067758 615.059407 982.819583 820.315408 1040.688076 658.04743 C 1120.05058 435.076585 1279.956578 975.025051 1414.117001 655.213055 L 1039.979482 215.176313 C 1014.942501 185.179176 987.543541 170.062509 959.908384 170.062509 Z M 959.908384 170.062509 " transform="matrix(0.016538,0,0,0.016538,0,0)"/>
<path style=" stroke:none;fill-rule:evenodd;fill:rgb(100%,100%,100%);fill-opacity:0.607843;" d="M 15.875 2.8125 C 15.421875 2.8125 14.96875 3.0625 14.554688 3.558594 L 3.308594 16.789062 C 3.070312 17.101562 3.023438 17.378906 3.054688 17.601562 C 3.078125 17.433594 3.152344 17.242188 3.308594 17.035156 L 14.554688 3.804688 C 14.96875 3.308594 15.421875 3.0625 15.875 3.0625 C 16.332031 3.0625 16.785156 3.308594 17.199219 3.804688 L 28.445312 17.035156 C 28.601562 17.242188 28.675781 17.433594 28.699219 17.601562 C 28.730469 17.378906 28.683594 17.101562 28.445312 16.789062 L 17.199219 3.558594 C 16.785156 3.0625 16.332031 2.8125 15.875 2.8125 Z M 15.875 2.8125 "/>
<path style=" stroke:none;fill-rule:evenodd;fill:rgb(0%,0%,0%);fill-opacity:0.27451;" d="M 3.054688 17.355469 C 3.003906 17.726562 3.195312 17.996094 3.308594 18.109375 C 7.9375 21.417969 9.921875 21.417969 13.5625 26.710938 C 15.214844 28.695312 16.539062 28.695312 17.859375 26.710938 C 21.832031 21.417969 23.816406 21.417969 28.445312 18.109375 C 28.558594 17.996094 28.75 17.726562 28.699219 17.355469 C 28.664062 17.597656 28.53125 17.777344 28.445312 17.863281 C 23.816406 21.171875 21.832031 21.171875 17.859375 26.460938 C 16.539062 28.449219 15.214844 28.449219 13.5625 26.460938 C 9.921875 21.171875 7.9375 21.171875 3.308594 17.863281 C 3.222656 17.777344 3.089844 17.597656 3.054688 17.355469 Z M 3.054688 17.355469 "/>
<path style=" stroke:none;fill-rule:evenodd;fill:rgb(12.941177%,12.941177%,12.941177%);fill-opacity:1;" d="M 15.875 2.71875 C 15.386719 2.71875 14.90625 2.988281 14.480469 3.496094 L 3.234375 16.730469 C 2.972656 17.078125 2.921875 17.398438 2.96875 17.652344 C 3.011719 17.90625 3.148438 18.082031 3.242188 18.175781 L 3.246094 18.183594 L 3.253906 18.1875 C 5.574219 19.84375 7.230469 20.671875 8.753906 21.742188 C 10.273438 22.8125 11.667969 24.125 13.484375 26.765625 L 13.488281 26.769531 C 14.324219 27.773438 15.089844 28.292969 15.835938 28.292969 C 16.582031 28.292969 17.265625 27.769531 17.9375 26.765625 C 19.917969 24.128906 21.394531 22.816406 22.957031 21.746094 C 24.523438 20.675781 26.179688 19.84375 28.5 18.1875 L 28.507812 18.183594 L 28.511719 18.175781 C 28.605469 18.082031 28.738281 17.90625 28.785156 17.652344 C 28.832031 17.398438 28.78125 17.078125 28.519531 16.730469 L 17.273438 3.496094 C 16.847656 2.988281 16.367188 2.71875 15.875 2.71875 Z M 15.875 2.90625 C 16.296875 2.90625 16.726562 3.136719 17.128906 3.617188 L 28.371094 16.847656 C 28.605469 17.160156 28.636719 17.417969 28.601562 17.617188 C 28.566406 17.816406 28.453125 17.96875 28.382812 18.039062 C 26.078125 19.6875 24.429688 20.511719 22.851562 21.589844 C 21.273438 22.667969 19.773438 24.003906 17.785156 26.65625 L 17.78125 26.660156 C 17.128906 27.640625 16.492188 28.105469 15.835938 28.105469 C 15.175781 28.105469 14.453125 27.632812 13.636719 26.652344 C 11.8125 24.003906 10.398438 22.667969 8.859375 21.589844 C 7.324219 20.511719 5.675781 19.6875 3.371094 18.039062 C 3.296875 17.96875 3.1875 17.816406 3.152344 17.617188 C 3.113281 17.417969 3.148438 17.160156 3.382812 16.847656 L 14.625 3.617188 C 15.027344 3.136719 15.457031 2.90625 15.875 2.90625 Z M 15.875 2.90625 "/>
</g>
</svg>

<svg xmlns="http://www.w3.org/2000/svg" width="32pt" height="32pt" viewBox="0 0 32 32"><defs><linearGradient id="a" gradientUnits="userSpaceOnUse" x1="254" y1="233.5" x2="254" y2="254.667" gradientTransform="matrix(.0625 0 0 .0625 0 13.439)"><stop offset="0" stop-opacity=".275"/><stop offset="1" stop-opacity="0"/></linearGradient><radialGradient id="b" gradientUnits="userSpaceOnUse" cx="450.909" cy="189.579" fx="450.909" fy="189.579" r="21.167" gradientTransform="matrix(0 -.07813 -.14064 0 43.2 63.595)"><stop offset="0" stop-opacity=".314"/><stop offset=".222" stop-opacity=".275"/><stop offset="1" stop-opacity="0"/></radialGradient><radialGradient id="c" gradientUnits="userSpaceOnUse" cx="450.909" cy="189.579" fx="450.909" fy="189.579" r="21.167" gradientTransform="matrix(0 .07813 .14064 0 -11.447 -7.527)"><stop offset="0" stop-opacity=".314"/><stop offset=".222" stop-opacity=".275"/><stop offset="1" stop-opacity="0"/></radialGradient><radialGradient id="d" gradientUnits="userSpaceOnUse" cx="450.909" cy="189.579" fx="450.909" fy="189.579" r="21.167" gradientTransform="matrix(0 -.07813 .14064 0 -11.447 63.595)"><stop offset="0" stop-opacity=".314"/><stop offset=".222" stop-opacity=".275"/><stop offset="1" stop-opacity="0"/></radialGradient><radialGradient id="e" gradientUnits="userSpaceOnUse" cx="450.909" cy="189.579" fx="450.909" fy="189.579" r="21.167" gradientTransform="matrix(0 .07813 -.14064 0 43.2 -7.527)"><stop offset="0" stop-opacity=".314"/><stop offset=".222" stop-opacity=".275"/><stop offset="1" stop-opacity="0"/></radialGradient><linearGradient id="f" gradientUnits="userSpaceOnUse" x1="960" y1="1695.118" x2="960" y2="175.118"><stop offset="0" stop-color="#424242"/><stop offset="1" stop-color="#616161"/></linearGradient><linearGradient id="g" gradientUnits="userSpaceOnUse" x1="960" y1="1695.118" x2="960" y2="175.118"><stop offset="0" stop-color="#424242"/><stop offset="1" stop-color="#616161"/></linearGradient><linearGradient id="h" gradientUnits="userSpaceOnUse" x1="960" y1="615.118" x2="960" y2="175.118"><stop offset="0" stop-color="#e0e0e0"/><stop offset="1" stop-color="#eee"/></linearGradient></defs><path d="M14.883 28.035h1.984v1.32h-1.984zm0 0" fill="url(#a)"/><path d="M16.867 28.035h2.649v-1.324h-2.649zm0 0" fill="url(#b)"/><path d="M14.883 28.035h-2.645v1.32h2.645zm0 0" fill="url(#c)"/><path d="M14.883 28.035h-2.645v-1.324h2.645zm0 0" fill="url(#d)"/><path d="M16.867 28.035h2.649v1.32h-2.649zm0 0" fill="url(#e)"/><path d="M959.908 170.063c-27.399 0-54.798 15.116-79.835 45.113L200.06 1015.18c-29.997 39.917-10.157 69.914 0 79.835 279.894 200.06 399.883 200.06 620.02 520.107 99.91 119.989 179.982 119.989 259.817 0 240.213-320.048 360.202-320.048 640.096-520.107 9.92-9.92 29.997-39.918 0-79.835L1039.98 215.176c-25.036-29.997-52.435-45.113-80.07-45.113zm0 0" transform="rotate(.891) scale(.01654)" fill-rule="evenodd" fill="url(#f)" stroke="url(#g)"/><path d="M959.908 170.063c-27.399 0-54.798 15.116-79.835 45.113L505.936 655.213C599.943 895.19 700.091 895.19 793.389 810.16c146.679-195.1 189.43 10.156 247.3-152.112 79.362-222.97 239.268 316.978 373.428-2.834l-374.138-440.037c-25.036-29.997-52.435-45.113-80.07-45.113zm0 0" transform="rotate(.891) scale(.01654)" fill-rule="evenodd" fill="url(#h)" stroke-width="11.339" stroke="#212121"/><path d="M15.875 2.813c-.453 0-.906.25-1.32.746L3.309 16.789c-.239.313-.286.59-.254.813.023-.168.097-.36.254-.567l11.246-13.23c.414-.496.867-.743 1.32-.743.457 0 .91.247 1.324.743l11.246 13.23c.157.207.23.399.254.567.031-.223-.015-.5-.254-.813L17.2 3.56c-.414-.497-.867-.747-1.324-.747zm0 0" fill-rule="evenodd" fill="#fff" fill-opacity=".608"/><path d="M3.055 17.355c-.051.372.14.641.254.754 4.629 3.309 6.613 3.309 10.254 8.602 1.652 1.984 2.976 1.984 4.296 0 3.973-5.293 5.957-5.293 10.586-8.602a.906.906 0 0 0 .254-.754.932.932 0 0 1-.254.508c-4.629 3.309-6.613 3.309-10.586 8.598-1.32 1.988-2.644 1.988-4.297 0-3.64-5.29-5.624-5.29-10.253-8.598a.932.932 0 0 1-.254-.508zm0 0" fill-rule="evenodd" fill-opacity=".275"/><path d="M15.875 2.719c-.488 0-.969.27-1.395.777L3.234 16.73c-.261.348-.312.668-.265.922.043.254.18.43.273.524l.004.008.008.003c2.32 1.657 3.976 2.485 5.5 3.555 1.52 1.07 2.914 2.383 4.73 5.024l.004.004c.836 1.003 1.602 1.523 2.348 1.523.746 0 1.43-.523 2.101-1.527 1.981-2.637 3.458-3.95 5.02-5.02 1.566-1.07 3.223-1.902 5.543-3.558l.008-.004.004-.008c.093-.094.226-.27.273-.524.047-.254-.004-.574-.265-.922L17.273 3.496c-.425-.508-.906-.777-1.398-.777zm0 .187c.422 0 .852.23 1.254.711l11.242 13.23c.234.313.266.571.23.77a.83.83 0 0 1-.218.422c-2.305 1.648-3.953 2.473-5.531 3.55-1.579 1.079-3.079 2.415-5.067 5.067l-.004.004c-.652.98-1.289 1.445-1.945 1.445-.66 0-1.383-.472-2.2-1.453-1.823-2.648-3.238-3.984-4.777-5.062-1.535-1.078-3.183-1.902-5.488-3.55a.8.8 0 0 1-.219-.423c-.039-.199-.004-.457.23-.77l11.243-13.23c.402-.48.832-.71 1.25-.71zm0 0" fill-rule="evenodd" fill="#212121"/></svg>
